pgmapcss/icons/maki/mobilephone-24.svg

<?xml version="1.0" encoding="UTF-8" standalone="no"?>
<!-- Created with Inkscape (http://www.inkscape.org/) -->

<svg
   xmlns:dc="http://purl.org/dc/elements/1.1/"
   xmlns:cc="http://creativecommons.org/ns#"
   xmlns:rdf="http://www.w3.org/1999/02/22-rdf-syntax-ns#"
   xmlns:svg="http://www.w3.org/2000/svg"
   xmlns="http://www.w3.org/2000/svg"
   xmlns:sodipodi="http://sodipodi.sourceforge.net/DTD/sodipodi-0.dtd"
   xmlns:inkscape="http://www.inkscape.org/namespaces/inkscape"
   width="24"
   height="24"
   id="svg4460"
   version="1.1"
   inkscape:version="0.48.2 r9819"
   sodipodi:docname="mobilephone-24.svg">
  <defs
     id="defs4462" />
  <sodipodi:namedview
     id="base"
     pagecolor="#ffffff"
     bordercolor="#666666"
     borderopacity="1.0"
     inkscape:pageopacity="0.0"
     inkscape:pageshadow="2"
     inkscape:zoom="1"
     inkscape:cx="12"
     inkscape:cy="12.5"
     inkscape:document-units="px"
     inkscape:current-layer="layer1"
     showgrid="false"
     showguides="false"
     inkscape:guide-bbox="true"
     inkscape:window-width="1440"
     inkscape:window-height="825"
     inkscape:window-x="0"
     inkscape:window-y="0"
     inkscape:window-maximized="1"
     inkscape:snap-bbox="true">
    <inkscape:grid
       type="xygrid"
       id="grid4468"
       empspacing="2"
       visible="true"
       enabled="true"
       snapvisiblegridlinesonly="true"
       spacingx="0.5px"
       spacingy="0.5px"
       color="#e500ff"
       opacity="0.1254902" />
    <sodipodi:guide
       orientation="1,0"
       position="0,20"
       id="guide4470" />
    <sodipodi:guide
       orientation="0,1"
       position="4,24"
       id="guide4472" />
    <sodipodi:guide
       orientation="1,0"
       position="24,13"
       id="guide4474" />
    <sodipodi:guide
       orientation="0,1"
       position="15,0"
       id="guide4476" />
    <sodipodi:guide
       orientation="1,0"
       position="23,20"
       id="guide4478" />
    <sodipodi:guide
       orientation="0,1"
       position="20,23"
       id="guide4480" />
    <sodipodi:guide
       orientation="1,0"
       position="2,5"
       id="guide4482" />
    <sodipodi:guide
       orientation="0,1"
       position="7,2"
       id="guide4484" />
    <sodipodi:guide
       orientation="1,0"
       position="12.5,12"
       id="guide4486" />
    <sodipodi:guide
       orientation="0,1"
       position="14.5,12.5"
       id="guide4490" />
  </sodipodi:namedview>
  <metadata
     id="metadata4465">
    <rdf:RDF>
      <cc:Work
         rdf:about="">
        <dc:format>image/svg+xml</dc:format>
        <dc:type
           rdf:resource="http://purl.org/dc/dcmitype/StillImage" />
        <dc:title></dc:title>
      </cc:Work>
    </rdf:RDF>
  </metadata>
  <g
     inkscape:label="Layer 1"
     inkscape:groupmode="layer"
     id="layer1"
     transform="translate(0,-1028.3622)">
    <path
       style="fill:#ffffff;fill-opacity:1;stroke:#ffffff;opacity:0.29999999999999999;color:#000000;fill-rule:nonzero;stroke-width:2;stroke-linecap:butt;stroke-linejoin:round;stroke-miterlimit:4;stroke-opacity:1;stroke-dasharray:none;stroke-dashoffset:0;marker:none;visibility:visible;display:inline;overflow:visible;enable-background:accumulate"
       d="M 7.875 1 C 7.3873115 1 7 1.3873115 7 1.875 L 7 3.03125 C 6.4413703 3.0912805 6 3.503283 6 4.03125 L 6 20.96875 C 6 21.53775 6.5043022 22 7.125 22 L 16.875 22 C 17.495698 22 18 21.53775 18 20.96875 L 18 4.03125 C 18 3.46235 17.495698 3 16.875 3 L 9 3 L 9 1.875 C 9 1.3873115 8.6126885 1 8.125 1 L 7.875 1 z M 9 5 L 15 5 C 15.532025 5 16 5.5123 16 6 L 16 10 C 16 10.4877 15.532024 11 15 11 L 9 11 C 8.4679762 11 8 10.4877 8 10 L 8 6 C 8 5.5123 8.4679762 5 9 5 z "
       transform="translate(0,1028.3622)"
       id="path8165" />
    <path
       style="fill:#444444;fill-opacity:1;stroke:none"
       d="M 7.875 1 C 7.3873115 1 7 1.3873115 7 1.875 L 7 3.03125 C 6.4413703 3.0912867 6 3.503283 6 4.03125 L 6 20.96875 C 6 21.53775 6.5043022 22 7.125 22 L 16.875 22 C 17.495698 22 18 21.53775 18 20.96875 L 18 4.03125 C 18 3.46235 17.495698 3 16.875 3 L 9 3 L 9 1.875 C 9 1.3873115 8.6126885 1 8.125 1 L 7.875 1 z M 9 5 L 15 5 C 15.532025 5 16 5.5123 16 6 L 16 9 C 16 9.4877 15.532024 10 15 10 L 9 10 C 8.4679762 10 8 9.4877 8 9 L 8 6 C 8 5.5123 8.4679762 5 9 5 z M 8 12 L 10 12 L 10 14 L 8 14 L 8 12 z M 11 12.03125 L 13 12.03125 L 13 14 L 11 14 L 11 12.03125 z M 14 12.03125 L 16 12.03125 L 16 14 L 14 14 L 14 12.03125 z M 8 15 L 10 15 L 10 17 L 8 17 L 8 15 z M 11 15.03125 L 13 15.03125 L 13 17 L 11 17 L 11 15.03125 z M 14 15.03125 L 16 15.03125 L 16 17 L 14 17 L 14 15.03125 z M 8 18 L 10 18 L 10 20 L 8 20 L 8 18 z M 11 18.03125 L 13 18.03125 L 13 20 L 11 20 L 11 18.03125 z M 14 18.03125 L 16 18.03125 L 16 20 L 14 20 L 14 18.03125 z "
       transform="translate(0,1028.3622)"
       id="rect6639" />
  </g>
</svg>

<?xml version="1.0" encoding="UTF-8" standalone="no"?>
<!-- Created with Inkscape (http://www.inkscape.org/) -->

<svg
   xmlns:dc="http://purl.org/dc/elements/1.1/"
   xmlns:cc="http://creativecommons.org/ns#"
   xmlns:rdf="http://www.w3.org/1999/02/22-rdf-syntax-ns#"
   xmlns:svg="http://www.w3.org/2000/svg"
   xmlns="http://www.w3.org/2000/svg"
   version="1.1"
   width="24"
   height="24"
   id="svg4460">
  <defs
     id="defs4462" />
  <metadata
     id="metadata4465">
    <rdf:RDF>
      <cc:Work
         rdf:about="">
        <dc:format>image/svg+xml</dc:format>
        <dc:type
           rdf:resource="http://purl.org/dc/dcmitype/StillImage" />
        <dc:title></dc:title>
      </cc:Work>
    </rdf:RDF>
  </metadata>
  <path
     d="M 7.875,1 C 7.3873115,1 7,1.3873115 7,1.875 l 0,1.15625 c -0.5586297,0.060037 -1,0.472033 -1,1 l 0,16.9375 C 6,21.53775 6.5043022,22 7.125,22 l 9.75,0 C 17.495698,22 18,21.53775 18,20.96875 L 18,4.03125 C 18,3.46235 17.495698,3 16.875,3 L 9,3 9,1.875 C 9,1.3873115 8.6126885,1 8.125,1 L 7.875,1 z M 9,5 15,5 c 0.532025,0 1,0.5123 1,1 l 0,3 c 0,0.4877 -0.467976,1 -1,1 L 9,10 C 8.4679762,10 8,9.4877 8,9 L 8,6 C 8,5.5123 8.4679762,5 9,5 z m -1,7 2,0 0,2 -2,0 0,-2 z m 3,0.03125 2,0 0,1.96875 -2,0 0,-1.96875 z m 3,0 2,0 L 16,14 14,14 14,12.03125 z M 8,15 l 2,0 0,2 -2,0 0,-2 z m 3,0.03125 2,0 0,1.96875 -2,0 0,-1.96875 z m 3,0 2,0 L 16,17 14,17 14,15.03125 z M 8,18 l 2,0 0,2 -2,0 0,-2 z m 3,0.03125 2,0 0,1.96875 -2,0 0,-1.96875 z m 3,0 2,0 0,1.96875 -2,0 0,-1.96875 z"
     id="path14111"
     style="opacity:0.3;fill:none;stroke:#ffffff;stroke-width:2;stroke-linecap:round;stroke-linejoin:round;stroke-miterlimit:4;stroke-opacity:1;stroke-dasharray:none" />
  <path
     d="M 7.875,1 C 7.3873115,1 7,1.3873115 7,1.875 l 0,1.15625 c -0.5586297,0.060037 -1,0.472033 -1,1 l 0,16.9375 C 6,21.53775 6.5043022,22 7.125,22 l 9.75,0 C 17.495698,22 18,21.53775 18,20.96875 L 18,4.03125 C 18,3.46235 17.495698,3 16.875,3 L 9,3 9,1.875 C 9,1.3873115 8.6126885,1 8.125,1 L 7.875,1 z M 9,5 15,5 c 0.532025,0 1,0.5123 1,1 l 0,3 c 0,0.4877 -0.467976,1 -1,1 L 9,10 C 8.4679762,10 8,9.4877 8,9 L 8,6 C 8,5.5123 8.4679762,5 9,5 z m -1,7 2,0 0,2 -2,0 0,-2 z m 3,0.03125 2,0 0,1.96875 -2,0 0,-1.96875 z m 3,0 2,0 L 16,14 14,14 14,12.03125 z M 8,15 l 2,0 0,2 -2,0 0,-2 z m 3,0.03125 2,0 0,1.96875 -2,0 0,-1.96875 z m 3,0 2,0 L 16,17 14,17 14,15.03125 z M 8,18 l 2,0 0,2 -2,0 0,-2 z m 3,0.03125 2,0 0,1.96875 -2,0 0,-1.96875 z m 3,0 2,0 0,1.96875 -2,0 0,-1.96875 z"
     id="rect6639"
     style="fill:#444444;fill-opacity:1;stroke:none" />
  <rect
     width="24"
     height="24"
     x="0"
     y="0"
     id="canvas"
     style="fill:none;stroke:none;visibility:hidden" />
</svg>
